img/culture/integrity.svg

<svg height="104" viewBox="0 0 99 104" width="99" xmlns="http://www.w3.org/2000/svg"><g fill="none" fill-rule="evenodd" transform="translate(2 2)"><path d="m79.8190077 79.7945191c-.3645191.3673893-.8495878.5718931-1.3655115.5718931h-76.54111447c-.50731297 0-1.00314503-.207374-1.35977099-.5718931-.35590839-.3616489-.55754198-.8603512-.55251908-1.3705344.01650381-.9615267.28056488-9.5470992 4.81122137-14.0791908 2.09167939-2.0909618 6.47021377-4.3584428 12.90741987-7.5795573 6.8713282-3.4335114 10.6815572-5.4799847 12.4367023-7.1389771l3.8740916-3.6631297-3.3639084-4.1316947c-5.2984428-6.5082443-8.340168-13.6981679-8.340168-19.7213435 0-4.6447481 0-9.9058779 2.1978779-14.26145038 2.632-5.20803053 7.8967176-7.84864122 15.6628397-7.84864122 7.7596641 0 13.0301221 2.64061069 15.6599695 7.84577099 2.1978778 4.35844271 2.1978778 9.61957251 2.1978778 14.26432061 0 6.0210229-3.0388549 13.210229-8.3437557 19.7213435l-3.3639084 4.1345649 3.8748092 3.6609771c1.7544274 1.6568397 5.5617862 3.7025954 12.4359847 7.1389771 6.4372061 3.2175267 10.8157405 5.4857252 12.9074198 7.5795573 3.6868092 3.6860916 4.7602748 10.5839694 4.8105039 14.0791908.0093282.5094656-.1901527 1.0081679-.5460611 1.3698168z" fill="#fbfbfb" stroke="#4a4a4a" stroke-width="4"/><g fill="#64b608" fill-rule="nonzero" transform="translate(54.534351 53.099237)"><path d="m19.733004 14.351145c-4.9459832 0-8.9696452 4.0236621-8.9696452 8.9692861 0 4.9459832 4.023662 8.9696452 8.9696452 8.9696452 4.945624 0 8.9692861-4.023662 8.9692861-8.9696452 0-4.945624-4.0236621-8.9692861-8.9692861-8.9692861zm3.7005588 7.6418928-4.5373221 4.5303219c-.1904605.1901666-.4402655.2853765-.689817.2853765-.2495514 0-.4991029-.0949567-.6895634-.2853765l-1.7339261-1.731251c-.380921-.3800801-.380921-.9966657 0-1.376999.3806674-.3803334.9982058-.3803334 1.3791268 0l1.0443627 1.0427513 3.8480123-3.8418222c.3806674-.3803333.9982058-.3803333 1.3791268 0 .3809211.38008.3809211.9966657 0 1.376999z"/><path d="m39.4196595 12.6549549-.0014144-.036296c-.0201544-.4480072-.0335908-.9219907-.0417232-1.449351-.0378339-2.57168173-2.0691927-4.69891473-4.6249214-4.84267555-5.3285601-.29926453-9.4506804-2.04787994-12.9727632-5.50276544l-.0300549-.0288234c-1.148805-1.06005801-2.8817361-1.06005801-4.0308948 0l-.0300549.0288234c-3.5220827 3.4548855-7.644203 5.20350091-12.97276301 5.50312126-2.55537517.143405-4.58708762 2.270638-4.62492139 4.84267553-.00777897.5238018-.02156889.9977855-.04172335 1.4489952l-.00212147.0843349c-.10360105 5.4682486-.2323069 12.2737575 2.02994445 18.4508465 1.24392003 3.3968831 3.12783297 6.3496732 5.59905432 8.7768825 2.81455465 2.7641931 6.50105535 4.9586805 10.95696205 6.5222573.1449708.0508857.295599.0921635.4490558.1231219.2163954.0434129.4342052.0651194.6520149.0651194.2178098 0 .4359731-.0217065.6520149-.0651194.153457-.0309584.3051459-.0725921.4508238-.1238336 4.4506029-1.5664235 8.1332142-3.7619785 10.9452938-6.5258158 2.4701605-2.4279208 4.3540735-5.3814227 5.5990543-8.7790174 2.2707373-6.195593 2.1423851-13.0139122 2.0391377-18.4924803zm-19.6870316 21.5724859c-5.9731413 0-10.83237065-4.8922914-10.83237065-10.906074 0-6.0137824 4.85922935-10.9060739 10.83237065-10.9060739 5.9728096 0 10.8323707 4.8922915 10.8323707 10.9060739 0 6.0137826-4.8595611 10.906074-10.8323707 10.906074z" stroke="#fff" stroke-width="4.16"/></g></g></svg>

<?xml version="1.0" encoding="UTF-8"?>
<svg width="99px" height="104px" viewBox="0 0 99 104" version="1.1" xmlns="http://www.w3.org/2000/svg" xmlns:xlink="http://www.w3.org/1999/xlink">
    <!-- Generator: Sketch 52.1 (67048) - http://www.bohemiancoding.com/sketch -->
    <title>Group 20</title>
    <desc>Created with Sketch.</desc>
    <g id="Page-1" stroke="none" stroke-width="1" fill="none" fill-rule="evenodd">
        <g id="Hamon_Home" transform="translate(-672.000000, -3161.000000)">
            <g id="Culture_section" transform="translate(-911.000000, 2967.000000)">
                <g id="Integrity_sec" transform="translate(0.000000, 186.000000)">
                    <g id="Group-20" transform="translate(1585.000000, 10.000000)">
                        <path d="M79.8190077,79.7945191 C79.4544886,80.1619084 78.9694199,80.3664122 78.4534962,80.3664122 L1.91238173,80.3664122 C1.40506876,80.3664122 0.909236696,80.1590382 0.552610741,79.7945191 C0.196702345,79.4328702 -0.00493124323,78.9341679 9.16575299e-05,78.4239847 C0.0165954743,77.462458 0.280656543,68.8768855 4.81131303,64.3447939 C6.90299242,62.2538321 11.2815268,59.9863511 17.7187329,56.7652366 C24.5900611,53.3317252 28.4002901,51.2852519 30.1554352,49.6262595 L34.0295268,45.9631298 L30.6656184,41.8314351 C25.3671756,35.3231908 22.3254504,28.1332672 22.3254504,22.1100916 C22.3254504,17.4653435 22.3254504,12.2042137 24.5233283,7.84864122 C27.1553283,2.64061069 32.4200459,0 40.186168,0 C47.9458321,0 53.2162901,2.64061069 55.8461375,7.84577099 C58.0440153,12.2042137 58.0440153,17.4653435 58.0440153,22.1100916 C58.0440153,28.1311145 55.0051604,35.3203206 49.7002596,41.8314351 L46.3363512,45.966 L50.2111604,49.6269771 C51.9655878,51.2838168 55.7729466,53.3295725 62.6471451,56.7659542 C69.0843512,59.9834809 73.4628856,62.2516794 75.5545649,64.3455115 C79.2413741,68.0316031 80.3148397,74.9294809 80.3650688,78.4247023 C80.374397,78.9341679 80.1749161,79.4328702 79.8190077,79.7945191 Z" id="Path" stroke="#4A4A4A" stroke-width="4" fill="#FBFBFB"></path>
                        <g id="shield" transform="translate(54.534351, 53.099237)" fill="#64B608" fill-rule="nonzero">
                            <path d="M19.733004,14.351145 C14.7870208,14.351145 10.7633588,18.3748071 10.7633588,23.3204311 C10.7633588,28.2664143 14.7870208,32.2900763 19.733004,32.2900763 C24.678628,32.2900763 28.7022901,28.2664143 28.7022901,23.3204311 C28.7022901,18.3748071 24.678628,14.351145 19.733004,14.351145 Z M23.4335628,21.9930378 L18.8962407,26.5233597 C18.7057802,26.7135263 18.4559752,26.8087362 18.2064237,26.8087362 C17.9568723,26.8087362 17.7073208,26.7137795 17.5168603,26.5233597 L15.7829342,24.7921087 C15.4020132,24.4120286 15.4020132,23.795443 15.7829342,23.4151097 C16.1636016,23.0347763 16.78114,23.0347763 17.162061,23.4151097 L18.2064237,24.457861 L22.054436,20.6160388 C22.4351034,20.2357055 23.0526418,20.2357055 23.4335628,20.6160388 C23.8144839,20.9961188 23.8144839,21.6127045 23.4335628,21.9930378 Z" id="Shape"></path>
                            <path d="M39.4196595,12.6549549 L39.4182451,12.6186589 C39.3980907,12.1706517 39.3846543,11.6966682 39.3765219,11.1693079 C39.338688,8.59762617 37.3073292,6.47039317 34.7516005,6.32663235 C29.4230404,6.02736782 25.3009201,4.27875241 21.7788373,0.823866913 L21.7487824,0.795043513 C20.5999774,-0.265014504 18.8670463,-0.265014504 17.7178876,0.795043513 L17.6878327,0.823866913 C14.16575,4.27875241 10.0436297,6.02736782 4.71506969,6.32698817 C2.15969452,6.47039317 0.127982066,8.59762617 0.0901482964,11.1696637 C0.0823693314,11.6934655 0.0685794055,12.1674492 0.0484249542,12.6186589 L0.0463034759,12.7029938 C-0.0572975694,18.1712424 -0.186003423,24.9767513 2.07624793,31.1538403 C3.32016796,34.5507234 5.2040809,37.5035135 7.67530225,39.9307228 C10.4898569,42.6949159 14.1763576,44.8894033 18.6322643,46.4529801 C18.7772351,46.5038658 18.9278633,46.5451436 19.0813201,46.576102 C19.2977155,46.6195149 19.5155253,46.6412214 19.733335,46.6412214 C19.9511448,46.6412214 20.1693081,46.6195149 20.3853499,46.576102 C20.5388069,46.5451436 20.6904958,46.5035099 20.8361737,46.4522684 C25.2867766,44.8858449 28.9693879,42.6902899 31.7814675,39.9264526 C34.251628,37.4985318 36.135541,34.5450299 37.3805218,31.1474352 C39.6512591,24.9518422 39.5229069,18.133523 39.4196595,12.6549549 Z M19.7326279,34.2274408 C13.7594866,34.2274408 8.90025725,29.3351494 8.90025725,23.3213668 C8.90025725,17.3075844 13.7594866,12.4152929 19.7326279,12.4152929 C25.7054375,12.4152929 30.5649986,17.3075844 30.5649986,23.3213668 C30.5649986,29.3351494 25.7054375,34.2274408 19.7326279,34.2274408 Z" id="Shape" stroke="#FFFFFF" stroke-width="4.16"></path>
                        </g>
                    </g>
                </g>
            </g>
        </g>
    </g>
</svg>
